<?xml version="1.0" encoding="UTF-8"?>
<map version="1.10" tiledversion="1.12.1" orientation="orthogonal" renderorder="right-down" width="76" height="27" tilewidth="16" tileheight="16" infinite="1" nextlayerid="13" nextobjectid="4">
 <editorsettings>
  <export target="Free.tmj" format="json"/>
 </editorsettings>
 <tileset firstgid="1" source="BG_1.tsx"/>
 <tileset firstgid="3001" source="Terrain_and_Props.tsx"/>
 <tileset firstgid="3681" source="BG_2.tsx"/>
 <tileset firstgid="6506" source="BG_3.tsx"/>
 <tileset firstgid="9706" name="a" tilewidth="1929" tileheight="400" tilecount="1" columns="0">
  <grid orientation="orthogonal" width="1" height="1"/>
  <tile id="0">
   <image source="BG_1/BG_1.png" width="1929" height="400"/>
  </tile>
 </tileset>
 <tileset firstgid="9707" name="b" tilewidth="1817" tileheight="400" tilecount="1" columns="0">
  <grid orientation="orthogonal" width="1" height="1"/>
  <tile id="0">
   <image source="BG_2/BG_2.png" width="1817" height="400"/>
  </tile>
 </tileset>
 <tileset firstgid="9708" name="c" tilewidth="2048" tileheight="400" tilecount="1" columns="0">
  <grid orientation="orthogonal" width="1" height="1"/>
  <tile id="0">
   <image source="BG_3/BG_3.png" width="2048" height="400"/>
  </tile>
 </tileset>
 <objectgroup id="8" name="bg1">
  <object id="1" gid="9708" x="0" y="512" width="2615.52" height="510.844"/>
 </objectgroup>
 <objectgroup id="9" name="bg2">
  <object id="2" gid="9707" x="-400" y="512" width="2327.67" height="512.42"/>
 </objectgroup>
 <objectgroup id="10" name="bg3">
  <object id="3" gid="9706" x="-528" y="512" width="2467.67" height="511.699"/>
 </objectgroup>
 <layer id="2" name="Platform" width="76" height="27">
  <data encoding="csv">
   <chunk x="0" y="0" width="16" height="16">
0,0,0,0,0,0,0,0,0,0,0,0,0,0,0,0,
0,0,0,0,0,0,0,0,0,0,0,0,0,0,0,0,
0,0,0,0,0,0,0,0,0,0,0,0,0,0,0,0,
0,0,0,0,0,0,0,0,0,0,0,0,0,0,0,0,
0,0,0,0,0,0,0,0,0,0,0,0,0,0,0,0,
0,0,0,0,0,0,0,0,0,0,0,0,0,0,0,0,
0,0,0,0,0,0,0,0,0,0,0,0,0,3186,0,0,
0,0,0,0,0,0,0,0,0,0,0,0,0,3186,0,0,
0,0,0,0,0,0,0,0,0,0,0,0,0,3186,0,0,
0,0,0,0,0,0,0,0,0,0,0,0,0,3186,0,0,
0,0,0,0,0,0,0,0,0,0,0,0,0,3186,0,0,
0,0,0,0,0,0,0,0,0,0,0,0,0,3186,0,0,
0,0,0,0,0,0,0,0,0,0,0,0,0,3186,0,0,
0,0,0,0,0,0,0,0,0,0,0,0,0,3186,0,0,
0,0,0,0,0,0,0,0,0,0,0,0,0,3186,0,0,
0,0,0,0,0,0,0,0,0,0,0,0,0,3186,3187,3188
</chunk>
   <chunk x="16" y="0" width="16" height="16">
0,0,0,0,0,0,0,0,0,0,0,0,0,0,0,0,
0,0,0,0,0,0,0,0,0,0,0,0,0,0,0,0,
0,0,0,0,0,0,0,0,0,0,0,0,0,0,0,0,
0,0,0,0,0,0,0,0,0,0,0,0,0,0,0,0,
0,0,0,0,0,0,0,0,0,0,0,0,0,0,0,0,
0,0,0,0,0,0,0,3186,0,0,0,0,0,0,0,0,
0,0,0,0,0,0,0,3186,0,0,0,0,0,0,0,0,
0,0,0,0,0,0,0,3186,0,0,0,0,0,0,0,0,
0,0,0,0,0,0,0,3186,0,0,0,0,0,0,0,0,
0,0,0,0,0,0,0,3186,0,0,0,0,0,0,0,0,
0,0,0,0,0,0,0,3186,0,0,0,0,0,0,0,0,
0,0,0,0,0,0,0,3186,0,0,0,0,0,0,0,0,
0,0,0,0,0,0,0,3186,0,0,0,0,0,0,0,0,
0,0,0,0,0,0,0,3186,0,0,0,0,0,0,0,0,
0,0,0,0,0,0,0,3186,0,0,0,0,0,0,0,0,
3189,0,0,0,0,0,0,3190,0,0,0,0,0,0,0,0
</chunk>
   <chunk x="32" y="0" width="16" height="16">
0,0,0,0,0,0,0,0,0,0,0,0,0,0,0,0,
0,0,0,0,0,0,0,0,0,0,0,0,3186,0,0,0,
0,0,0,0,0,0,0,0,0,0,0,0,3186,0,0,0,
0,0,0,0,0,3186,0,0,0,0,0,0,3186,0,0,0,
0,0,0,0,0,3186,0,0,0,0,0,0,3186,0,0,0,
0,0,0,0,0,3186,0,0,0,0,0,0,3186,0,0,0,
0,0,0,0,0,3186,0,0,0,0,0,0,3186,0,0,0,
0,0,0,0,0,3186,0,0,0,0,0,0,3186,0,0,0,
0,0,0,0,0,3186,0,0,0,0,0,0,3186,0,0,0,
0,0,0,0,0,3186,0,0,0,0,0,0,3186,0,0,0,
0,0,0,0,0,3186,3187,3188,3189,3187,3188,3189,3190,0,0,0,
0,0,0,0,0,3206,3207,3208,3209,3207,3208,3209,3210,0,0,0,
0,0,0,0,0,0,0,0,0,0,0,0,0,0,0,0,
0,0,0,0,0,0,0,0,0,0,0,0,0,0,0,0,
0,0,0,0,0,0,0,0,0,0,0,0,0,0,0,0,
0,0,0,0,0,0,0,0,0,0,0,0,0,0,0,0
</chunk>
   <chunk x="48" y="0" width="16" height="16">
0,0,0,0,0,0,0,0,0,0,0,0,0,0,0,0,
0,0,0,0,0,0,0,0,0,0,0,0,0,0,0,0,
0,0,0,0,0,0,0,0,0,0,0,0,0,0,0,0,
0,0,0,0,0,0,0,0,0,0,0,0,0,0,0,0,
0,0,0,0,0,0,0,0,0,0,0,0,0,0,0,0,
0,0,0,0,0,0,0,0,0,0,0,0,0,0,0,0,
0,0,0,0,0,0,0,0,0,0,0,0,0,0,0,0,
0,0,0,0,0,0,0,0,0,0,0,0,0,0,0,0,
0,0,0,0,0,0,0,0,0,0,0,0,0,0,0,0,
0,0,0,0,0,0,0,0,0,0,0,0,0,0,0,0,
0,0,0,0,0,0,0,0,0,0,0,0,0,0,0,0,
0,0,0,0,0,0,0,0,0,0,0,0,0,0,0,0,
0,0,0,0,0,0,0,0,0,0,0,0,0,0,0,3186,
0,0,0,0,0,0,0,0,0,0,0,0,0,0,0,3206,
0,0,0,0,0,0,0,0,0,0,0,0,0,0,0,0,
0,0,0,0,0,0,0,0,0,0,0,0,0,0,0,0
</chunk>
   <chunk x="64" y="0" width="16" height="16">
0,0,0,0,0,0,0,0,0,0,0,0,0,0,0,0,
0,0,0,0,0,0,0,0,0,0,0,0,0,0,0,0,
0,0,0,0,0,0,0,0,0,0,0,0,0,0,0,0,
0,0,0,0,0,0,0,0,0,0,0,0,0,0,0,0,
0,0,0,0,0,0,0,0,0,0,0,0,0,0,0,0,
0,0,0,0,0,0,0,0,0,0,0,0,0,0,0,0,
0,0,0,0,0,0,0,0,0,0,0,0,0,0,0,0,
0,0,0,0,0,0,0,0,0,0,0,0,0,0,0,0,
0,0,0,0,0,0,0,0,0,0,0,0,0,0,0,0,
0,0,0,0,0,0,0,0,0,0,0,0,0,0,0,0,
0,0,0,0,0,0,0,0,0,0,0,0,0,0,0,0,
0,0,0,0,0,0,0,0,0,0,0,0,0,0,0,0,
3187,3188,3189,0,0,0,0,0,0,0,0,0,0,0,0,0,
3207,3208,3209,0,0,0,0,0,0,0,0,0,0,0,0,0,
0,0,0,0,0,0,0,0,0,0,0,0,0,0,0,0,
0,0,0,0,0,0,0,0,0,0,0,0,0,0,0,0
</chunk>
   <chunk x="0" y="16" width="16" height="16">
0,0,0,3004,0,0,0,0,0,0,0,0,0,3206,3207,3208,
0,0,0,0,0,0,0,0,0,0,0,0,0,0,0,0,
0,0,0,0,0,0,0,0,0,0,0,0,0,0,0,0,
0,0,0,0,0,0,0,0,0,0,0,0,0,0,0,0,
0,0,0,0,0,0,0,0,0,0,0,0,0,0,0,0,
0,0,0,0,0,0,0,0,0,0,0,0,0,0,0,0,
0,0,0,0,0,0,0,0,0,0,0,0,0,0,0,0,
0,0,0,0,0,0,0,0,0,0,0,0,0,0,0,0,
0,0,0,0,0,0,0,0,0,0,0,0,0,0,3006,3007,
0,0,3183,3184,0,0,0,0,0,3006,3007,3007,3008,3009,3026,3027,
3007,3008,3009,3007,3008,3009,3007,3008,3009,3026,3027,3027,3028,3029,3046,3047,
3027,3028,3029,3027,3028,3029,3027,3028,3029,3046,3047,0,0,0,0,0,
0,0,3243,3244,0,0,0,0,0,0,0,0,0,0,0,0,
0,0,3263,3264,0,0,0,0,0,0,0,0,0,0,0,0,
0,0,3283,3284,0,0,0,0,0,0,0,0,0,0,0,0,
0,0,3303,3304,0,0,0,0,0,0,0,0,0,0,0,0
</chunk>
   <chunk x="16" y="16" width="16" height="16">
3209,3207,3208,3209,3207,3208,3209,3210,0,0,0,0,0,0,0,0,
0,0,0,0,0,0,0,0,0,0,0,0,0,0,0,0,
0,0,0,0,0,0,0,0,0,0,0,0,0,0,0,0,
0,0,0,0,0,0,0,0,0,0,0,0,0,0,0,0,
0,0,0,0,0,0,0,0,0,0,0,0,0,0,0,0,
0,0,0,0,0,0,0,0,0,0,0,0,0,0,0,0,
0,0,0,0,0,0,0,0,0,0,0,0,0,0,0,0,
0,0,0,0,0,0,0,0,0,3014,3015,3015,3016,3017,3015,3016,
3007,3008,3009,3007,3008,3009,3007,3008,3009,3034,3035,3035,3036,3037,3035,3036,
3027,3028,3029,3027,3028,3029,3027,3028,3029,3054,3055,0,0,0,0,0,
0,0,0,0,0,0,0,0,0,0,0,0,0,0,0,0,
0,0,0,0,0,0,0,0,0,0,0,0,0,0,0,0,
0,0,0,0,0,0,0,0,0,0,0,0,0,0,0,0,
0,0,0,0,0,0,0,0,0,0,0,0,0,0,0,0,
0,0,0,0,0,0,0,0,0,0,0,0,0,0,0,0,
0,0,0,0,0,0,0,0,0,0,0,0,0,0,0,0
</chunk>
   <chunk x="32" y="16" width="16" height="16">
0,0,0,0,0,0,0,0,0,0,0,0,0,0,0,0,
0,0,0,0,0,0,0,0,0,0,0,0,0,0,0,0,
0,0,0,0,0,0,0,0,0,0,0,0,0,0,0,0,
0,0,0,0,0,0,0,0,0,0,0,0,0,0,0,0,
0,0,0,0,0,0,0,0,0,0,0,0,0,0,0,0,
0,0,0,0,0,0,0,0,0,0,0,0,0,0,0,0,
0,0,0,0,0,0,0,0,0,0,0,0,0,0,0,0,
3017,3015,3016,3017,3015,3016,3017,3017,3018,0,0,0,0,0,0,0,
3037,3035,3036,3037,3035,3036,3037,3037,3038,3017,3018,0,0,0,0,0,
0,0,0,0,0,0,0,3057,3058,3037,3038,3015,3016,0,0,0,
0,0,0,0,0,0,0,0,0,3057,3058,3035,3036,3059,0,0,
0,0,0,0,0,0,0,0,0,0,0,0,0,0,3165,3165,
0,0,0,0,0,0,0,0,0,0,0,0,0,0,3166,3166,
0,0,0,0,0,0,0,0,0,0,0,0,0,0,3166,3166,
0,0,0,0,0,0,0,0,0,0,0,0,0,0,3166,3166,
0,0,0,0,0,0,0,0,0,0,0,0,0,0,3166,3166
</chunk>
   <chunk x="48" y="16" width="16" height="16">
0,0,0,0,0,0,0,0,0,0,0,0,0,0,0,0,
0,0,0,0,0,0,0,0,0,0,0,0,0,0,0,0,
0,0,0,0,0,0,0,0,0,0,0,0,0,0,0,0,
0,0,0,0,0,0,0,0,0,0,0,0,0,0,0,0,
0,0,0,0,0,0,0,0,0,0,0,0,0,0,0,0,
0,0,0,0,0,0,0,0,0,0,0,0,0,0,0,0,
0,0,0,0,0,0,0,0,0,0,0,0,0,0,0,0,
0,0,0,0,0,0,0,0,0,0,0,0,0,0,0,0,
0,0,0,0,0,0,0,3005,3006,3007,3007,3008,3009,3007,3008,3009,
0,0,0,0,0,0,0,3025,3026,3027,3027,3028,3029,3027,3028,3029,
0,0,0,0,0,0,0,3045,3046,3047,3047,3048,3049,3047,3048,3049,
3165,3165,3165,3165,3165,3165,3165,3065,3066,3067,0,0,0,0,0,0,
3166,3166,3166,3166,3166,3166,3166,0,0,0,0,0,0,0,0,0,
3166,3166,3166,3166,3166,3166,3166,0,0,0,0,0,0,0,0,0,
3166,3166,3166,3166,3166,3166,3166,0,0,0,0,0,0,0,0,0,
3166,3166,3166,3166,3166,3166,3166,0,0,0,0,0,0,0,0,0
</chunk>
   <chunk x="64" y="16" width="16" height="16">
0,0,0,0,0,0,0,0,0,0,0,0,0,0,0,0,
0,0,0,0,0,0,0,0,0,0,0,0,0,0,0,0,
0,0,0,0,0,0,0,0,0,0,0,0,0,0,0,0,
0,0,0,0,0,0,0,0,0,0,0,0,0,0,0,0,
0,0,0,0,0,0,0,0,0,0,0,0,0,0,0,0,
0,0,0,0,0,0,0,0,0,0,0,0,0,0,0,0,
0,0,0,0,0,0,0,0,0,0,0,0,0,0,0,0,
0,0,0,0,3193,3194,3195,3193,3194,3195,3015,3016,3017,3015,3016,3017,
3193,3194,3195,3196,3213,3214,3215,3213,3214,3215,3035,3036,3037,3035,3036,3037,
3213,3214,3215,3216,0,0,0,0,0,0,3055,3056,3057,3055,3056,3057,
0,0,0,0,0,0,0,0,0,0,0,0,0,0,0,0,
0,0,0,0,0,0,0,0,0,0,0,0,0,0,0,0,
0,0,0,0,0,0,0,0,0,0,0,0,0,0,0,0,
0,0,0,0,0,0,0,0,0,0,0,0,0,0,0,0,
0,0,0,0,0,0,0,0,0,0,0,0,0,0,0,0,
0,0,0,0,0,0,0,0,0,0,0,0,0,0,0,0
</chunk>
  </data>
 </layer>
</map>
