{ "compressionlevel":-1,
 "editorsettings":
    {
     "export":
        {
         "format":"json"
        }
    },
 "height":2,
 "infinite":false,
 "layers":[
        {
         "draworder":"topdown",
         "id":3,
         "name":"skillanimation",
         "objects":[
                {
                 "gid":57,
                 "height":128,
                 "id":11,
                 "name":"",
                 "opacity":1,
                 "rotation":0,
                 "type":"",
                 "visible":true,
                 "width":128,
                 "x":0,
                 "y":128
                }],
         "opacity":1,
         "type":"objectgroup",
         "visible":true,
         "x":0,
         "y":0
        }, 
        {
         "draworder":"topdown",
         "id":4,
         "name":"skillbox",
         "objects":[],
         "opacity":1,
         "type":"objectgroup",
         "visible":true,
         "x":0,
         "y":0
        }],
 "nextlayerid":5,
 "nextobjectid":12,
 "orientation":"orthogonal",
 "renderorder":"right-down",
 "tiledversion":"1.12.1",
 "tileheight":64,
 "tilesets":[
        {
         "columns":0,
         "firstgid":1,
         "grid":
            {
             "height":1,
             "orientation":"orthogonal",
             "width":1
            },
         "margin":0,
         "name":"skill1",
         "spacing":0,
         "tilecount":4,
         "tileheight":128,
         "tiles":[
                {
                 "animation":[
                        {
                         "duration":80,
                         "tileid":0
                        }, 
                        {
                         "duration":80,
                         "tileid":1
                        }, 
                        {
                         "duration":80,
                         "tileid":2
                        }, 
                        {
                         "duration":80,
                         "tileid":3
                        }],
                 "id":0,
                 "image":"..\/..\/..\/1AG]\/Theforest\/assets\/skills\/Pixel Art VFX - Blood Mage - FREE Version\/VFX3\/frames\/BloodMage_skill3_frame1.png",
                 "imageheight":128,
                 "imagewidth":128
                }, 
                {
                 "id":1,
                 "image":"..\/..\/..\/1AG]\/Theforest\/assets\/skills\/Pixel Art VFX - Blood Mage - FREE Version\/VFX3\/frames\/BloodMage_skill3_frame2.png",
                 "imageheight":128,
                 "imagewidth":128
                }, 
                {
                 "id":2,
                 "image":"..\/..\/..\/1AG]\/Theforest\/assets\/skills\/Pixel Art VFX - Blood Mage - FREE Version\/VFX3\/frames\/BloodMage_skill3_frame3.png",
                 "imageheight":128,
                 "imagewidth":128
                }, 
                {
                 "id":3,
                 "image":"..\/..\/..\/1AG]\/Theforest\/assets\/skills\/Pixel Art VFX - Blood Mage - FREE Version\/VFX3\/frames\/BloodMage_skill3_frame4.png",
                 "imageheight":128,
                 "imagewidth":128
                }],
         "tilewidth":128
        }, 
        {
         "columns":0,
         "firstgid":5,
         "grid":
            {
             "height":1,
             "orientation":"orthogonal",
             "width":1
            },
         "margin":0,
         "name":"skill2",
         "spacing":0,
         "tilecount":9,
         "tileheight":128,
         "tiles":[
                {
                 "animation":[
                        {
                         "duration":80,
                         "tileid":0
                        }, 
                        {
                         "duration":80,
                         "tileid":1
                        }, 
                        {
                         "duration":80,
                         "tileid":2
                        }, 
                        {
                         "duration":80,
                         "tileid":3
                        }, 
                        {
                         "duration":80,
                         "tileid":4
                        }, 
                        {
                         "duration":80,
                         "tileid":5
                        }, 
                        {
                         "duration":80,
                         "tileid":6
                        }, 
                        {
                         "duration":80,
                         "tileid":7
                        },
                    
                        {
                         "duration":80,
                         "tileid":8
                        }],
                 "id":0,
                 "image":"..\/..\/..\/1AG]\/Theforest\/assets\/skills\/Pixel Art VFX - Vampire - FREE Version\/VFX2\/Frames\/Vampire_skill2_frame1.png",
                 "imageheight":128,
                 "imagewidth":192
                }, 
                {
                 "id":1,
                 "image":"..\/..\/..\/1AG]\/Theforest\/assets\/skills\/Pixel Art VFX - Vampire - FREE Version\/VFX2\/Frames\/Vampire_skill2_frame2.png",
                 "imageheight":128,
                 "imagewidth":192
                }, 
                {
                 "id":2,
                 "image":"..\/..\/..\/1AG]\/Theforest\/assets\/skills\/Pixel Art VFX - Vampire - FREE Version\/VFX2\/Frames\/Vampire_skill2_frame3.png",
                 "imageheight":128,
                 "imagewidth":192
                }, 
                {
                 "id":3,
                 "image":"..\/..\/..\/1AG]\/Theforest\/assets\/skills\/Pixel Art VFX - Vampire - FREE Version\/VFX2\/Frames\/Vampire_skill2_frame4.png",
                 "imageheight":128,
                 "imagewidth":192
                }, 
                {
                 "id":4,
                 "image":"..\/..\/..\/1AG]\/Theforest\/assets\/skills\/Pixel Art VFX - Vampire - FREE Version\/VFX2\/Frames\/Vampire_skill2_frame5.png",
                 "imageheight":128,
                 "imagewidth":192
                }, 
                {
                 "id":5,
                 "image":"..\/..\/..\/1AG]\/Theforest\/assets\/skills\/Pixel Art VFX - Vampire - FREE Version\/VFX2\/Frames\/Vampire_skill2_frame6.png",
                 "imageheight":128,
                 "imagewidth":192
                }, 
                {
                 "id":6,
                 "image":"..\/..\/..\/1AG]\/Theforest\/assets\/skills\/Pixel Art VFX - Vampire - FREE Version\/VFX2\/Frames\/Vampire_skill2_frame7.png",
                 "imageheight":128,
                 "imagewidth":192
                }, 
                {
                 "id":7,
                 "image":"..\/..\/..\/1AG]\/Theforest\/assets\/skills\/Pixel Art VFX - Vampire - FREE Version\/VFX2\/Frames\/Vampire_skill2_frame8.png",
                 "imageheight":128,
                 "imagewidth":192
                },
            
                {
                 "id":8,
                 "image":"..\/..\/..\/1AG]\/Theforest\/assets\/skills\/Pixel Art VFX - Vampire - FREE Version\/VFX2\/Frames\/Vampire_skill2_frame9.png",
                 "imageheight":128,
                 "imagewidth":192
                }],
         "tilewidth":192
        }, 
        {
         "columns":0,
         "firstgid":14,
         "grid":
            {
             "height":1,
             "orientation":"orthogonal",
             "width":1
            },
         "margin":0,
         "name":"skill3",
         "spacing":0,
         "tilecount":0,
         "tileheight":0,
         "tilewidth":0
        }, 
        {
         "columns":0,
         "firstgid":14,
         "grid":
            {
             "height":1,
             "orientation":"orthogonal",
             "width":1
            },
         "margin":0,
         "name":"explosion",
         "spacing":0,
         "tilecount":21,
         "tileheight":64,
         "tiles":[
                {
                 "animation":[
                        {
                         "duration":50,
                         "tileid":0
                        }, 
                        {
                         "duration":50,
                         "tileid":1
                        }, 
                        {
                         "duration":50,
                         "tileid":2
                        }, 
                        {
                         "duration":50,
                         "tileid":3
                        }, 
                        {
                         "duration":50,
                         "tileid":4
                        }, 
                        {
                         "duration":50,
                         "tileid":5
                        }, 
                        {
                         "duration":50,
                         "tileid":6
                        }, 
                        {
                         "duration":50,
                         "tileid":7
                        },
                    
                        {
                         "duration":50,
                         "tileid":8
                        }, 
                        {
                         "duration":50,
                         "tileid":9
                        }, 
                        {
                         "duration":50,
                         "tileid":10
                        }, 
                        {
                         "duration":50,
                         "tileid":11
                        }, 
                        {
                         "duration":50,
                         "tileid":12
                        }, 
                        {
                         "duration":50,
                         "tileid":13
                        }, 
                        {
                         "duration":50,
                         "tileid":14
                        }, 
                        {
                         "duration":50,
                         "tileid":15
                        },
                    
                        {
                         "duration":50,
                         "tileid":16
                        }, 
                        {
                         "duration":50,
                         "tileid":17
                        }, 
                        {
                         "duration":50,
                         "tileid":18
                        }, 
                        {
                         "duration":50,
                         "tileid":19
                        }, 
                        {
                         "duration":50,
                         "tileid":20
                        }],
                 "id":0,
                 "image":"..\/..\/..\/1AG]\/Theforest\/assets\/skills\/PixelSimulations\/PixelSimulations\/Explosion4\/0001.png",
                 "imageheight":64,
                 "imagewidth":64
                }, 
                {
                 "id":1,
                 "image":"..\/..\/..\/1AG]\/Theforest\/assets\/skills\/PixelSimulations\/PixelSimulations\/Explosion4\/0002.png",
                 "imageheight":64,
                 "imagewidth":64
                }, 
                {
                 "id":2,
                 "image":"..\/..\/..\/1AG]\/Theforest\/assets\/skills\/PixelSimulations\/PixelSimulations\/Explosion4\/0003.png",
                 "imageheight":64,
                 "imagewidth":64
                }, 
                {
                 "id":3,
                 "image":"..\/..\/..\/1AG]\/Theforest\/assets\/skills\/PixelSimulations\/PixelSimulations\/Explosion4\/0004.png",
                 "imageheight":64,
                 "imagewidth":64
                }, 
                {
                 "id":4,
                 "image":"..\/..\/..\/1AG]\/Theforest\/assets\/skills\/PixelSimulations\/PixelSimulations\/Explosion4\/0005.png",
                 "imageheight":64,
                 "imagewidth":64
                }, 
                {
                 "id":5,
                 "image":"..\/..\/..\/1AG]\/Theforest\/assets\/skills\/PixelSimulations\/PixelSimulations\/Explosion4\/0006.png",
                 "imageheight":64,
                 "imagewidth":64
                }, 
                {
                 "id":6,
                 "image":"..\/..\/..\/1AG]\/Theforest\/assets\/skills\/PixelSimulations\/PixelSimulations\/Explosion4\/0007.png",
                 "imageheight":64,
                 "imagewidth":64
                }, 
                {
                 "id":7,
                 "image":"..\/..\/..\/1AG]\/Theforest\/assets\/skills\/PixelSimulations\/PixelSimulations\/Explosion4\/0008.png",
                 "imageheight":64,
                 "imagewidth":64
                },
            
                {
                 "id":8,
                 "image":"..\/..\/..\/1AG]\/Theforest\/assets\/skills\/PixelSimulations\/PixelSimulations\/Explosion4\/0009.png",
                 "imageheight":64,
                 "imagewidth":64
                }, 
                {
                 "id":9,
                 "image":"..\/..\/..\/1AG]\/Theforest\/assets\/skills\/PixelSimulations\/PixelSimulations\/Explosion4\/0010.png",
                 "imageheight":64,
                 "imagewidth":64
                }, 
                {
                 "id":10,
                 "image":"..\/..\/..\/1AG]\/Theforest\/assets\/skills\/PixelSimulations\/PixelSimulations\/Explosion4\/0011.png",
                 "imageheight":64,
                 "imagewidth":64
                }, 
                {
                 "id":11,
                 "image":"..\/..\/..\/1AG]\/Theforest\/assets\/skills\/PixelSimulations\/PixelSimulations\/Explosion4\/0012.png",
                 "imageheight":64,
                 "imagewidth":64
                }, 
                {
                 "id":12,
                 "image":"..\/..\/..\/1AG]\/Theforest\/assets\/skills\/PixelSimulations\/PixelSimulations\/Explosion4\/0013.png",
                 "imageheight":64,
                 "imagewidth":64
                }, 
                {
                 "id":13,
                 "image":"..\/..\/..\/1AG]\/Theforest\/assets\/skills\/PixelSimulations\/PixelSimulations\/Explosion4\/0014.png",
                 "imageheight":64,
                 "imagewidth":64
                }, 
                {
                 "id":14,
                 "image":"..\/..\/..\/1AG]\/Theforest\/assets\/skills\/PixelSimulations\/PixelSimulations\/Explosion4\/0015.png",
                 "imageheight":64,
                 "imagewidth":64
                }, 
                {
                 "id":15,
                 "image":"..\/..\/..\/1AG]\/Theforest\/assets\/skills\/PixelSimulations\/PixelSimulations\/Explosion4\/0016.png",
                 "imageheight":64,
                 "imagewidth":64
                },
            
                {
                 "id":16,
                 "image":"..\/..\/..\/1AG]\/Theforest\/assets\/skills\/PixelSimulations\/PixelSimulations\/Explosion4\/0017.png",
                 "imageheight":64,
                 "imagewidth":64
                }, 
                {
                 "id":17,
                 "image":"..\/..\/..\/1AG]\/Theforest\/assets\/skills\/PixelSimulations\/PixelSimulations\/Explosion4\/0018.png",
                 "imageheight":64,
                 "imagewidth":64
                }, 
                {
                 "id":18,
                 "image":"..\/..\/..\/1AG]\/Theforest\/assets\/skills\/PixelSimulations\/PixelSimulations\/Explosion4\/0019.png",
                 "imageheight":64,
                 "imagewidth":64
                }, 
                {
                 "id":19,
                 "image":"..\/..\/..\/1AG]\/Theforest\/assets\/skills\/PixelSimulations\/PixelSimulations\/Explosion4\/0020.png",
                 "imageheight":64,
                 "imagewidth":64
                }, 
                {
                 "id":20,
                 "image":"..\/..\/..\/1AG]\/Theforest\/assets\/skills\/PixelSimulations\/PixelSimulations\/Explosion4\/0021.png",
                 "imageheight":64,
                 "imagewidth":64
                }],
         "tilewidth":64
        }, 
        {
         "columns":12,
         "firstgid":35,
         "image":"..\/..\/..\/1AG]\/Theforest\/assets\/skills\/Pixel Art VFX - Blood Mage - FREE Version\/VFX2\/sprite-sheet.png",
         "imageheight":128,
         "imagewidth":1536,
         "margin":0,
         "name":"sprite-sheet",
         "spacing":0,
         "tilecount":12,
         "tileheight":128,
         "tiles":[
                {
                 "animation":[
                        {
                         "duration":85,
                         "tileid":0
                        }, 
                        {
                         "duration":85,
                         "tileid":1
                        }, 
                        {
                         "duration":85,
                         "tileid":2
                        }, 
                        {
                         "duration":85,
                         "tileid":3
                        }, 
                        {
                         "duration":85,
                         "tileid":4
                        }, 
                        {
                         "duration":85,
                         "tileid":5
                        }, 
                        {
                         "duration":85,
                         "tileid":6
                        }, 
                        {
                         "duration":85,
                         "tileid":7
                        },
                    
                        {
                         "duration":85,
                         "tileid":8
                        }, 
                        {
                         "duration":85,
                         "tileid":9
                        }, 
                        {
                         "duration":85,
                         "tileid":10
                        }, 
                        {
                         "duration":85,
                         "tileid":11
                        }],
                 "id":0
                }],
         "tilewidth":128
        }, 
        {
         "columns":5,
         "firstgid":47,
         "image":"..\/..\/..\/1AG]\/Theforest\/assets\/skills\/Pixel Art VFX - Vampire - FREE Version\/VFX4\/sprite-sheet\/sprite-sheet.png",
         "imageheight":256,
         "imagewidth":640,
         "margin":0,
         "name":"sprite",
         "spacing":0,
         "tilecount":10,
         "tileheight":128,
         "tiles":[
                {
                 "animation":[
                        {
                         "duration":80,
                         "tileid":0
                        }, 
                        {
                         "duration":80,
                         "tileid":1
                        }, 
                        {
                         "duration":80,
                         "tileid":2
                        }, 
                        {
                         "duration":80,
                         "tileid":3
                        }, 
                        {
                         "duration":80,
                         "tileid":4
                        }, 
                        {
                         "duration":80,
                         "tileid":5
                        }, 
                        {
                         "duration":80,
                         "tileid":6
                        }, 
                        {
                         "duration":80,
                         "tileid":7
                        },
                    
                        {
                         "duration":80,
                         "tileid":8
                        }, 
                        {
                         "duration":80,
                         "tileid":9
                        }],
                 "id":0
                }],
         "tilewidth":128
        }, 
        {
         "columns":8,
         "firstgid":57,
         "image":"..\/..\/..\/1AG]\/Theforest\/assets\/skills\/Free Pixel Effects Pack\/13_vortex_spritesheet.png",
         "imageheight":800,
         "imagewidth":800,
         "margin":0,
         "name":"13_vortex_spritesheet",
         "spacing":0,
         "tilecount":64,
         "tileheight":100,
         "tiles":[
                {
                 "animation":[
                        {
                         "duration":60,
                         "tileid":0
                        }, 
                        {
                         "duration":60,
                         "tileid":1
                        }, 
                        {
                         "duration":60,
                         "tileid":2
                        }, 
                        {
                         "duration":60,
                         "tileid":3
                        }, 
                        {
                         "duration":60,
                         "tileid":4
                        }, 
                        {
                         "duration":60,
                         "tileid":5
                        }, 
                        {
                         "duration":60,
                         "tileid":6
                        }, 
                        {
                         "duration":60,
                         "tileid":7
                        },
                    
                        {
                         "duration":60,
                         "tileid":8
                        }, 
                        {
                         "duration":60,
                         "tileid":9
                        }, 
                        {
                         "duration":60,
                         "tileid":10
                        }, 
                        {
                         "duration":60,
                         "tileid":11
                        }, 
                        {
                         "duration":60,
                         "tileid":12
                        }, 
                        {
                         "duration":60,
                         "tileid":13
                        }, 
                        {
                         "duration":60,
                         "tileid":14
                        }, 
                        {
                         "duration":60,
                         "tileid":15
                        },
                    
                        {
                         "duration":60,
                         "tileid":16
                        }, 
                        {
                         "duration":60,
                         "tileid":17
                        }, 
                        {
                         "duration":60,
                         "tileid":18
                        }, 
                        {
                         "duration":60,
                         "tileid":19
                        }, 
                        {
                         "duration":60,
                         "tileid":20
                        }, 
                        {
                         "duration":60,
                         "tileid":21
                        }, 
                        {
                         "duration":60,
                         "tileid":22
                        }, 
                        {
                         "duration":60,
                         "tileid":23
                        },
                    
                        {
                         "duration":60,
                         "tileid":24
                        }, 
                        {
                         "duration":60,
                         "tileid":25
                        }, 
                        {
                         "duration":60,
                         "tileid":26
                        }, 
                        {
                         "duration":60,
                         "tileid":27
                        }, 
                        {
                         "duration":60,
                         "tileid":28
                        }, 
                        {
                         "duration":60,
                         "tileid":29
                        }, 
                        {
                         "duration":60,
                         "tileid":30
                        }, 
                        {
                         "duration":60,
                         "tileid":31
                        },
                    
                        {
                         "duration":60,
                         "tileid":32
                        }, 
                        {
                         "duration":60,
                         "tileid":33
                        }, 
                        {
                         "duration":60,
                         "tileid":34
                        }, 
                        {
                         "duration":60,
                         "tileid":35
                        }, 
                        {
                         "duration":60,
                         "tileid":36
                        }, 
                        {
                         "duration":60,
                         "tileid":37
                        }, 
                        {
                         "duration":60,
                         "tileid":38
                        }, 
                        {
                         "duration":60,
                         "tileid":39
                        },
                    
                        {
                         "duration":60,
                         "tileid":40
                        }, 
                        {
                         "duration":60,
                         "tileid":41
                        }, 
                        {
                         "duration":60,
                         "tileid":42
                        }, 
                        {
                         "duration":60,
                         "tileid":43
                        }, 
                        {
                         "duration":60,
                         "tileid":44
                        }, 
                        {
                         "duration":60,
                         "tileid":45
                        }, 
                        {
                         "duration":60,
                         "tileid":46
                        }, 
                        {
                         "duration":60,
                         "tileid":47
                        },
                    
                        {
                         "duration":60,
                         "tileid":48
                        }, 
                        {
                         "duration":60,
                         "tileid":49
                        }, 
                        {
                         "duration":60,
                         "tileid":50
                        }, 
                        {
                         "duration":60,
                         "tileid":51
                        }, 
                        {
                         "duration":60,
                         "tileid":52
                        }, 
                        {
                         "duration":60,
                         "tileid":53
                        }, 
                        {
                         "duration":60,
                         "tileid":54
                        }, 
                        {
                         "duration":60,
                         "tileid":55
                        },
                    
                        {
                         "duration":60,
                         "tileid":56
                        }, 
                        {
                         "duration":60,
                         "tileid":57
                        }, 
                        {
                         "duration":60,
                         "tileid":58
                        }, 
                        {
                         "duration":60,
                         "tileid":59
                        }, 
                        {
                         "duration":60,
                         "tileid":60
                        }],
                 "id":0
                }],
         "tilewidth":100
        }],
 "tilewidth":64,
 "type":"map",
 "version":"1.10",
 "width":8
}